2 Export/Icons/Rounded/Done All.svg

<svg xmlns="http://www.w3.org/2000/svg" xmlns:xlink="http://www.w3.org/1999/xlink" width="24" height="24" viewBox="0 0 24 24">
  <defs>
    <path id="done-all-a" d="M17.3 6.3a.996.996 0 0 0-1.41 0l-5.64 5.64 1.41 1.41L17.3 7.7c.38-.38.38-1.02 0-1.4zm4.24-.01l-9.88 9.88-3.48-3.47a.996.996 0 1 0-1.41 1.41l4.18 4.18c.39.39 1.02.39 1.41 0L22.95 7.71a.996.996 0 0 0 0-1.41h-.01a.975.975 0 0 0-1.4-.01zM1.12 14.12L5.3 18.3c.39.39 1.02.39 1.41 0l.7-.7-4.88-4.9a.996.996 0 0 0-1.41 0c-.39.39-.39 1.03 0 1.42z"/>
  </defs>
  <g fill="none" fill-rule="evenodd">
    <polygon points="0 0 24 0 24 24 0 24"/>
    <mask id="done-all-b" fill="#fff">
      <use xlink:href="#done-all-a"/>
    </mask>
    <use fill="#000" xlink:href="#done-all-a"/>
    <g fill="#000" mask="url(#done-all-b)">
      <rect width="24" height="24"/>
    </g>
  </g>
</svg>

<svg xmlns="http://www.w3.org/2000/svg" xmlns:xlink="http://www.w3.org/1999/xlink" width="24" height="24" viewBox="0 0 24 24">
  <defs>
    <path id="done-all-a" d="M17.3,6.3 C16.91,5.91 16.28,5.91 15.89,6.3 L10.25,11.94 L11.66,13.35 L17.3,7.7 C17.68,7.32 17.68,6.68 17.3,6.3 Z M21.54,6.29 L11.66,16.17 L8.18,12.7 C7.79,12.31 7.16,12.31 6.77,12.7 C6.38,13.09 6.38,13.72 6.77,14.11 L10.95,18.29 C11.34,18.68 11.97,18.68 12.36,18.29 L22.95,7.71 C23.34,7.32 23.34,6.69 22.95,6.3 L22.94,6.3 C22.56,5.9 21.93,5.9 21.54,6.29 Z M1.12,14.12 L5.3,18.3 C5.69,18.69 6.32,18.69 6.71,18.3 L7.41,17.6 L2.53,12.7 C2.14,12.31 1.51,12.31 1.12,12.7 C0.73,13.09 0.73,13.73 1.12,14.12 L1.12,14.12 Z"/>
  </defs>
  <g fill="none" fill-rule="evenodd">
    <polygon points="0 0 24 0 24 24 0 24"/>
    <mask id="done-all-b" fill="#fff">
      <use xlink:href="#done-all-a"/>
    </mask>
    <use fill="#000" xlink:href="#done-all-a"/>
    <g fill="#000" mask="url(#done-all-b)">
      <rect width="24" height="24"/>
    </g>
  </g>
</svg>
